X:6
T:Draaiende winden
O:vlaanderen
C:Trad.
Z:Bart Vanhaverbeke 
P:AB x6
L:1/8
M:2/4
K:C
P:Voorspel
E/G/ | "C" cc EE/G/ | "Dmin"AA DD/E/ | "G7"FG AB | "C"[c2G2E2] z |]
P:A
E/G/ | "C"cc EE/G/ | "Dmin"AA DD/E/ | "G7"FG BA | "C"GF E E/G/ |
"C"cc EE/G/ | "Dmin"AA DD/E/ | "G7"FG AB |1 "C"c2 z E/G/ :|2 "C"c2 [_BE] |]
P:B
K:F
C | "F"AA A/^G/A/G/ | A2 z c | cc AF | "C"AG G C | "C"GG G/^F/G/F/ | G2 z C | "C7"CE GB | "F" AF F C |
"F"AA A/^G/A/G/ | A2 z c | cc AF | "Gmin"Bc d2 | d>d "C7"cB | "F"Ac cc/d/ | "C7"cB AG | "F"F2 z |]
